dist/icons/sort_small.svg

<svg width="14" height="14" viewBox="0 0 14 14" fill="none" xmlns="http://www.w3.org/2000/svg">
<path d="M1.75 10.5H5.25V9.33333H1.75V10.5ZM1.75 3.5V4.66667H12.25V3.5H1.75ZM1.75 7.58333H8.75V6.41667H1.75V7.58333Z" fill="white"/>
</svg>

<svg width="14" height="14" fill="none" xmlns="http://www.w3.org/2000/svg"><path d="M1.75 10.5h3.5V9.333h-3.5V10.5Zm0-7v1.167h10.5V3.5H1.75Zm0 4.083h7V6.417h-7v1.166Z" fill="#fff"/></svg>
